next/ui/public/logo.svg

<svg width="226" height="87" viewBox="0 0 226 87" fill="none" xmlns="http://www.w3.org/2000/svg">
<path d="M37.9915 49.6859L30.8966 56.632L1.93865 28.2911L9.0335 21.3451L37.9915 49.6859ZM30.8357 0L23.5886 7.09515L30.8357 14.1903L38.0828 7.09515L30.8357 0ZM67.0408 7.31376L59.9459 0.367676L30.988 28.7184L38.0828 35.6645L67.0408 7.31376ZM88.8328 28.6489L81.5857 21.5537L74.3386 28.6489L81.5857 35.744L88.8328 28.6489ZM79.9516 65.6549L87.0464 58.7089L58.0986 30.368L51.0038 37.3141L79.9516 65.6549ZM58.1595 87L65.4066 79.9049L58.1595 72.8097L50.9124 79.9049L58.1595 87ZM21.7921 79.8254L28.8869 86.7714L57.8449 58.4207L50.75 51.4746L21.7921 79.8254ZM0 58.4803L7.2471 65.5754L14.4942 58.4803L7.2471 51.3852L0 58.4803ZM154.625 55.6283V52.8559H159.944V50.9678H154.625V48.5531H160.38V46.5954H152.636V57.5661H160.482V55.6383H154.625V55.6283ZM119.608 40.6431C121.008 40.6431 122.145 40.1561 122.977 39.2022C123.658 38.4171 124.074 37.4433 124.195 36.2906L124.236 35.903H122.267L122.216 36.1912C122.094 36.8172 121.912 37.334 121.668 37.7017C121.232 38.3873 120.613 38.7152 119.78 38.7152C118.857 38.7152 118.177 38.3973 117.72 37.7414C117.233 37.0557 116.989 36.1415 116.989 35.0186C116.989 33.6374 117.253 32.6138 117.781 31.9679C118.298 31.3419 118.958 31.0338 119.801 31.0338C120.481 31.0338 121.008 31.1928 121.374 31.5207C121.749 31.8586 122.003 32.3256 122.125 32.9119L122.186 33.1902H124.145L124.114 32.8126C124.033 31.8586 123.627 31.004 122.896 30.2587C122.155 29.5035 121.11 29.1259 119.801 29.1259C118.258 29.1259 117.03 29.7022 116.146 30.845C115.345 31.8685 114.949 33.2001 114.949 34.7801C114.949 36.8669 115.487 38.437 116.563 39.4605C117.365 40.2456 118.39 40.6431 119.608 40.6431ZM132.244 29.1259C134.061 29.1259 135.432 29.7618 136.325 31.0239C137.005 31.9878 137.35 33.2299 137.35 34.7106C137.35 36.3105 136.954 37.6619 136.193 38.7351C135.269 40.017 133.929 40.6729 132.234 40.6729C130.641 40.6729 129.372 40.0965 128.458 38.9736C127.646 37.9004 127.24 36.5489 127.24 34.9391C127.24 33.4883 127.586 32.2263 128.266 31.1829C129.159 29.8215 130.499 29.1259 132.244 29.1259ZM132.376 38.7252C133.402 38.7252 134.112 38.3476 134.559 37.5824C135.036 36.7676 135.279 35.8037 135.279 34.7304C135.279 33.6075 135.005 32.7033 134.467 32.0375C133.939 31.3816 133.239 31.0636 132.315 31.0636C131.422 31.0636 130.712 31.3816 130.154 32.0375C129.585 32.6933 129.291 33.7069 129.291 35.0385C129.291 36.1018 129.545 37.0061 130.042 37.7215C130.519 38.3973 131.28 38.7252 132.376 38.7252ZM145.186 29.4041C146.627 29.4041 147.764 29.9606 148.566 31.0537C149.256 32.0176 149.611 33.2498 149.611 34.7304C149.611 35.8633 149.408 36.9067 149.002 37.8209C148.261 39.5102 146.982 40.3748 145.176 40.3748H140.923V29.4041H145.186ZM142.953 38.4867H144.922C145.318 38.4867 145.642 38.4469 145.896 38.3575C146.322 38.2085 146.668 37.9103 146.952 37.4532C147.185 37.0855 147.358 36.5887 147.459 35.9825C147.52 35.6148 147.551 35.277 147.551 34.9689C147.551 33.7765 147.327 32.8424 146.901 32.1965C146.495 31.5903 145.845 31.3021 144.912 31.3021H142.953V38.4867ZM155.356 35.6745H160.675V33.7864H155.356V31.3717H161.111V29.4041H153.367V40.3748H161.213V38.4469H155.366V35.6745H155.356ZM119.557 53.2136H122.561C122.5 54.1278 122.247 54.8035 121.81 55.2209C121.303 55.6979 120.684 55.9264 119.902 55.9264C118.887 55.9264 118.187 55.6085 117.75 54.9427C117.283 54.2371 117.06 53.303 117.06 52.1503C117.06 50.8287 117.334 49.8349 117.892 49.189C118.44 48.5531 119.08 48.245 119.872 48.245C120.541 48.245 121.1 48.3941 121.536 48.6922C121.952 48.9804 122.226 49.4474 122.368 50.1132L122.429 50.3914H124.429L124.368 49.984C124.135 48.5332 123.485 47.5097 122.44 46.9134C121.729 46.5159 120.876 46.3073 119.912 46.3073C118.491 46.3073 117.314 46.8339 116.41 47.8873C115.487 48.9605 115.01 50.4212 115.01 52.2199C115.01 54.0284 115.487 55.4693 116.461 56.5425C117.344 57.3971 118.42 57.8244 119.658 57.8244C120.602 57.8244 121.404 57.6356 122.023 57.258C122.267 57.109 122.531 56.9003 122.825 56.6121L123.049 57.5462H124.53V51.3454H119.577V53.2136H119.557ZM130.61 52.8459H135.929V50.9579H130.61V48.5431H136.365V46.5756H128.621V57.5462H136.467V55.6184H130.62V52.8459H130.61ZM146.546 53.9291L142.242 46.5855H140.131V57.5561H142.1V50.2026L146.475 57.5561H148.505V46.5855H146.546V53.9291ZM172.611 56.2643C172.652 56.4134 172.712 56.6022 172.834 56.6519L173.037 56.7512V57.5561H170.855L170.754 57.3574C170.693 57.2381 170.652 57.099 170.622 56.9301C170.591 56.7711 170.571 56.473 170.551 56.0656L170.469 54.3564C170.449 53.8098 170.276 53.472 169.962 53.303C169.83 53.2335 169.546 53.154 168.957 53.154H166.348V57.5561H164.329V46.5855H169.15C169.942 46.5855 170.601 46.7147 171.129 46.9631C172.164 47.46 172.692 48.3841 172.692 49.7058C172.692 50.3815 172.55 50.9479 172.286 51.3951C172.114 51.6733 171.9 51.9218 171.647 52.1304C171.84 52.2696 171.992 52.4186 172.124 52.5975C172.357 52.9254 172.479 53.4123 172.509 54.0781L172.55 55.4594C172.54 55.9066 172.581 56.1451 172.611 56.2643ZM170.622 49.835C170.622 49.2387 170.439 48.8512 170.063 48.6524C169.85 48.5431 169.546 48.4835 169.17 48.4835H166.338V51.2858H168.998C169.525 51.2858 169.942 51.1765 170.236 50.9678C170.5 50.779 170.622 50.3914 170.622 49.835ZM181.431 46.5855L185.167 57.5561H182.974L182 54.4855H178.711L177.666 57.5561H175.565L179.442 46.5855H181.431ZM180.366 49.5965L179.32 52.6372H181.35L180.366 49.5965ZM186.385 48.5133H189.633V57.5561H191.683V48.5133H194.931V46.5855H186.395V48.5133H186.385ZM198.372 57.5561H200.412V46.5855H198.372V57.5561ZM209.019 46.3073C210.836 46.3073 212.206 46.9432 213.099 48.2052C213.779 49.1692 214.125 50.4113 214.125 51.8919C214.125 53.4918 213.729 54.8433 212.967 55.9165C212.044 57.1984 210.704 57.8543 209.009 57.8543C207.415 57.8543 206.147 57.2779 205.233 56.155C204.421 55.0818 204.015 53.7303 204.015 52.1205C204.015 50.6697 204.36 49.4076 205.04 48.3642C205.923 46.9929 207.263 46.3073 209.019 46.3073ZM209.151 55.9066C210.176 55.9066 210.887 55.529 211.333 54.7638C211.81 53.9489 212.054 52.985 212.054 51.9118C212.054 50.7889 211.78 49.8846 211.242 49.2188C210.714 48.563 210.014 48.245 209.09 48.245C208.197 48.245 207.486 48.563 206.928 49.2188C206.36 49.8747 206.065 50.8883 206.065 52.2199C206.065 53.2831 206.319 54.1874 206.816 54.9029C207.294 55.5786 208.055 55.9066 209.151 55.9066ZM224.041 46.5855V53.9291L219.737 46.5855H217.626V57.5561H219.595V50.2026L223.97 57.5561H226V46.5855H224.041ZM106.605 18.0161H105.59V69.123H106.605V18.0161Z" fill="#0C1033"/>
</svg>

<svg xmlns="http://www.w3.org/2000/svg" width="226" height="87" fill="none"><path fill="#0C1033" d="m37.992 49.686-7.095 6.946-28.958-28.34 7.095-6.947 28.958 28.34ZM30.836 0l-7.247 7.095 7.247 7.095 7.247-7.095L30.836 0ZM67.04 7.314 59.946.368l-28.958 28.35 7.095 6.946L67.04 7.314Zm21.792 21.335-7.247-7.095-7.247 7.095 7.247 7.095 7.247-7.095Zm-8.881 37.006 7.094-6.946L58.1 30.368l-7.095 6.946 28.948 28.34ZM58.16 87l7.247-7.095-7.247-7.095-7.248 7.095L58.16 87Zm-36.368-7.175 7.095 6.946 28.958-28.35-7.095-6.946-28.958 28.35ZM0 58.48l7.247 7.095 7.247-7.095-7.247-7.095L0 58.48Zm154.625-2.852v-2.772h5.319v-1.888h-5.319v-2.415h5.755v-1.958h-7.744v10.971h7.846v-1.928h-5.857v-.01Zm-35.017-14.985c1.4 0 2.537-.487 3.369-1.44.681-.786 1.097-1.76 1.218-2.912l.041-.388h-1.969l-.051.288c-.122.626-.304 1.143-.548 1.51-.436.686-1.055 1.014-1.888 1.014-.923 0-1.603-.318-2.06-.974-.487-.685-.731-1.6-.731-2.722 0-1.382.264-2.405.792-3.051.517-.626 1.177-.934 2.02-.934.68 0 1.207.159 1.573.487.375.338.629.805.751 1.39l.061.28h1.959l-.031-.378c-.081-.954-.487-1.809-1.218-2.554-.741-.756-1.786-1.133-3.095-1.133-1.543 0-2.771.576-3.655 1.719-.801 1.024-1.197 2.355-1.197 3.935 0 2.087.538 3.657 1.614 4.68.802.786 1.827 1.183 3.045 1.183Zm12.636-11.517c1.817 0 3.188.636 4.081 1.898.68.964 1.025 2.206 1.025 3.687 0 1.6-.396 2.95-1.157 4.024-.924 1.282-2.264 1.938-3.959 1.938-1.593 0-2.862-.577-3.776-1.7-.812-1.073-1.218-2.424-1.218-4.034 0-1.45.346-2.713 1.026-3.756.893-1.361 2.233-2.057 3.978-2.057Zm.132 9.6c1.026 0 1.736-.378 2.183-1.144.477-.814.72-1.778.72-2.852 0-1.122-.274-2.027-.812-2.692-.528-.656-1.228-.974-2.152-.974-.893 0-1.603.318-2.161.974-.569.655-.863 1.669-.863 3 0 1.064.254 1.968.751 2.684.477.675 1.238 1.003 2.334 1.003Zm12.81-9.322c1.441 0 2.578.557 3.38 1.65.69.964 1.045 2.196 1.045 3.676 0 1.133-.203 2.177-.609 3.09-.741 1.69-2.02 2.555-3.826 2.555h-4.253v-10.97h4.263Zm-2.233 9.083h1.969c.396 0 .72-.04.974-.13.426-.148.772-.447 1.056-.904.233-.367.406-.864.507-1.47.061-.368.092-.706.092-1.014 0-1.193-.224-2.127-.65-2.773-.406-.606-1.056-.894-1.989-.894h-1.959v7.185Zm12.403-2.813h5.319v-1.888h-5.319v-2.414h5.755v-1.968h-7.744v10.97h7.846v-1.927h-5.847v-2.773h-.01Zm-35.799 17.54h3.004c-.061.914-.314 1.59-.751 2.007-.507.477-1.126.705-1.908.705-1.015 0-1.715-.318-2.152-.983-.467-.706-.69-1.64-.69-2.793 0-1.321.274-2.315.832-2.961.548-.636 1.188-.944 1.98-.944.669 0 1.228.15 1.664.447.416.288.69.755.832 1.421l.061.278h2l-.061-.407c-.233-1.45-.883-2.474-1.928-3.07-.711-.398-1.564-.607-2.528-.607-1.421 0-2.598.527-3.502 1.58-.923 1.074-1.4 2.534-1.4 4.333 0 1.808.477 3.25 1.451 4.322.883.855 1.959 1.282 3.197 1.282.944 0 1.746-.188 2.365-.566.244-.149.508-.358.802-.646l.224.934h1.481v-6.2h-4.953v1.868h-.02Zm11.053-.368h5.319v-1.888h-5.319v-2.415h5.755v-1.967h-7.744v10.97h7.846v-1.928h-5.847v-2.772h-.01Zm15.936 1.083-4.304-7.343h-2.111v10.97h1.969v-7.353l4.375 7.353h2.03v-10.97h-1.959v7.343Zm26.065 2.335c.041.15.101.338.223.388l.203.1v.804h-2.182l-.101-.199a1.509 1.509 0 0 1-.132-.427c-.031-.159-.051-.457-.071-.864l-.082-1.71c-.02-.546-.193-.884-.507-1.053-.132-.07-.416-.149-1.005-.149h-2.609v4.402h-2.019v-10.97h4.821c.792 0 1.451.129 1.979.377 1.035.497 1.563 1.421 1.563 2.743 0 .675-.142 1.242-.406 1.69a2.982 2.982 0 0 1-.639.734c.193.14.345.289.477.467.233.328.355.815.385 1.481l.041 1.381c-.01.448.031.686.061.805Zm-1.989-6.429c0-.596-.183-.984-.559-1.183-.213-.109-.517-.169-.893-.169h-2.832v2.803h2.66c.527 0 .944-.11 1.238-.318.264-.189.386-.577.386-1.133Zm10.809-3.25 3.736 10.971h-2.193l-.974-3.07h-3.289l-1.045 3.07h-2.101l3.877-10.97h1.989Zm-1.065 3.011-1.046 3.041h2.03l-.984-3.04Zm6.019-1.083h3.248v9.043h2.05v-9.043h3.248v-1.927h-8.536v1.927h-.01Zm11.987 9.043h2.04v-10.97h-2.04v10.97Zm10.647-11.249c1.817 0 3.187.636 4.08 1.898.68.964 1.026 2.206 1.026 3.687 0 1.6-.396 2.951-1.158 4.024-.923 1.282-2.263 1.938-3.958 1.938-1.594 0-2.862-.576-3.776-1.699-.812-1.073-1.218-2.425-1.218-4.035 0-1.45.345-2.712 1.025-3.756.883-1.371 2.223-2.057 3.979-2.057Zm.132 9.6c1.025 0 1.736-.378 2.182-1.143.477-.815.721-1.779.721-2.852 0-1.123-.274-2.027-.812-2.693-.528-.656-1.228-.974-2.152-.974-.893 0-1.604.318-2.162.974-.568.656-.863 1.67-.863 3 0 1.064.254 1.968.751 2.684.478.676 1.239 1.004 2.335 1.004Zm14.89-9.321v7.343l-4.304-7.343h-2.111v10.97h1.969v-7.353l4.375 7.353H226v-10.97h-1.959Zm-117.436-28.57h-1.015v51.107h1.015V18.016Z"/></svg>
